X:1
T:Title
%%score { ( 1 2 ) | ( 3 4 ) }
L:1/8
M:6/8
K:A
V:1 treble nm="Grand Piano"
V:2 treble 
V:3 bass 
V:4 bass 
V:1
 z3 z z[Q:1/4=100] z/ E/ | FFF F^EF | [FA] [DA]2- [DA]2 [FA] | BBB [Bd]c[D=GB] | %4
[M:5/8] [DFA]-[DFA]- [DFA]3 |[M:1/8][K:bass] D/-[DE]/ |[M:3/4][K:treble] FF FF ^EF | %7
 [FA]A- A3 z/ E/ | [DF][DF] [DF][DF][K:bass] [A,D][=G,A,E] |[M:5/8] [F,A,D]-[F,A,D]- [F,A,D]3 | %10
[M:1/8][K:treble] [DFA] |[M:3/4] [D=GB][DGB] [DGB][DBd] [DAc][DGB] | [DFA][A,DF]- [A,DF]3 [DFA] | %13
 [DG][DF] [DE][Fd] [Ec][DEB] |[M:5/8] A2- [FA-] [=GA]2 |[M:1/8] z/ E/ |[M:3/4] FF FF ^EF | %17
 [FA]A- A3 z/ E/ | [DF][DF] [DF][A,DF] DE |[M:13/8] D-D- D3 z z z z z z z2 |] %20
V:2
 z3 z2 D | x6 | x6 | x6 |[M:5/8] x5 |[M:1/8][K:bass] F,/ z/ |[M:3/4][K:treble] x6 | z2 z2 z D | %8
 x4[K:bass] x2 |[M:5/8] x5 |[M:1/8][K:treble] x |[M:3/4] x6 | x6 | x6 |[M:5/8] [CE]2 z z2 | %15
[M:1/8] D |[M:3/4] x6 | z2 z2 z D | x6 |[M:13/8] x13 |] %20
V:3
 z3 z2 F,/=G,/ | [D,A,D][D,A,D][D,A,D] [D,A,D][D,G,D][D,A,D] | [D,D] [D,F,]2- [D,F,]2 [D,D] | %3
 [=G,D=G][G,DG][G,DG] z A[K:bass]G, |[M:5/8] D,-D,- D,3 |[M:1/8] z/ =G,/ | %6
[M:3/4] [D,A,D][D,A,D] [D,A,D][D,A,D] [D,G,D][D,A,D] | [D,D][D,F,D]- [D,F,D]3 F,/-[^A,,F,-G,]/ | %8
 [A,,F,-A,][A,,F,-A,] [A,,F,-A,][F,-A,] F,A,, |[M:5/8] D,-D,- D,3 |[M:1/8] D, | %11
[M:3/4] =G,G, G,G, G,G, | D,D,- D,3 D, | [E,B,]2 [E,G,][E,G,] [E,A,]E, |[M:5/8] z2 D E2 | %15
[M:1/8] F,/=G,/ |[M:3/4] [D,A,D][D,A,D] [D,A,D][D,A,D] [D,G,D][D,A,D] | %17
 [D,D][D,F,D]- [D,F,D]3 F,/-[^A,,F,-G,]/ | [A,,F,-A,][A,,F,-A,] [A,,F,-A,]2 [F,A,][A,,=G,A,] | %19
[M:13/8] [D,F,A,]-[D,F,A,]- [D,F,A,]3 z z z z z z z2 |] %20
V:4
 z3 z2 D, | x6 | x6 | z3 .[=G,D]3[K:bass] |[M:5/8] x5 |[M:1/8] D, |[M:3/4] x6 | z2 z2 z .B,, | %8
 z2 z .A,,3 |[M:5/8] x5 |[M:1/8] x |[M:3/4] x6 | x6 | x6 |[M:5/8] A,,-A,,- A,,3 |[M:1/8] D, | %16
[M:3/4] x6 | z2 z2 z .B,, | z2 z .A,,3 |[M:13/8] x13 |] %20

